X:1
T:Title
%%score { ( 1 4 ) | ( 2 3 ) }
L:1/8
Q:1/4=108
M:4/4
K:G
V:1 treble nm="Grand Piano"
V:4 treble 
V:2 bass 
V:3 bass 
V:1
 [DGB]2 [DGB]2 [B,DG]2 [DFA]2 | [DGB]4 [D=FB]4 | [DFc]2 [DFc]2 [DFA]2 [DFB]2 | [DFc]8 | %4
w: C.~G.~Stanger * * *||||
 [DGBd]2 [DGBd]2 [E^GBe]3 B | d2 z2 [GB]2 z2 | [EGB]2 z2 z4 | [FA]8 | %8
w: ||||
 [DGB]2 [DGB]2 [B,DG]2 [DFA]2 | [DGB]4 [D=FB]4 | [DFc]2 [DFc]2 [DFA]2 [DFB]2 | [DFc]8[K:bass] | %12
w: ||||
 D2[K:treble] [DE]2 [DF]2 [DG]2 | [CE]2 [CDF]2 [B,DG]2 [EGB][EGB] | [EA]4 [EGA^c]4 | [DFAd]8 | %16
w: ||||
 [G,B,DG]2 [G,B,DG]4 [G,B,DG]>[A,DFA] |[M:3/4] [B,DGB]2 [B,DGB]4 |[M:1/4] [DGB]>[DFc] | %19
w: |||
[M:4/4] [GBd]4 [^DGB^d]4 | [EGce]8 | [Fd]2 [DF]2 [DG]2 [FA][GB] | %22
w: |||
 [DAc]2 [DFA]2 [DGB]2 [GB]G[Q:1/4=106][Q:1/4=105][Q:1/4=103] | %23
w: |
 [DGBd]4 [DAd]2- [DFAd]2[Q:1/4=102][Q:1/4=100][Q:1/4=98][Q:1/4=97][Q:1/4=95][Q:1/4=94][Q:1/4=92][Q:1/4=91][Q:1/4=89][Q:1/4=87][Q:1/4=86][Q:1/4=84][Q:1/4=83] | %24
w: |
 [B,DG]8 |] %25
w: |
V:2
 [G,,G,]4 [B,,,B,,]2 [D,,D,]2 | [G,,G,]4 [^G,,^G,]4 | [A,,A,]4 [D,,D,]4 | [A,,A,]4 [D,,D,]4 | %4
 [G,,G,]2 [=F,,=F,]2 [E,,E,]2 z [E^G] | z2[K:treble] c2[K:bass] z2 G2 | z2 E2 z2 z[K:treble] B | %7
 D,2 C,2 B,,2 A,,2 | [G,,G,]4 [B,,,B,,]2 [D,,D,]2 | [G,,G,]4 [^G,,^G,]4 | [A,,A,]4 [D,,D,]4 | %11
 [A,,A,]4 D,,4 | D,2 [^C,^C]2 [=C,=C]2 [B,,B,]2 | [C,G,]2 [A,,A,]2 [G,,G,]2 [E,,E,]2 | %14
 [^C,,^C,]4 [A,,,A,,]4 | [D,,D,]2 C,2 B,,2 A,,2 | G,,2 G,,4 B,,>D, |[M:3/4] G,2 G,4 | %18
[M:1/4] [G,,G,]>[A,,A,] |[M:4/4] [B,,B,]2 [D,D]2 [B,,B,]2 [G,,G,]2 | [C,C]8 | %21
 [D,D]2 [C,C]2 [B,,B,]2 [A,,A,][G,,G,] | [F,,F,]2 [D,,D,]2 [G,,G,]2 [E,,E,]2 | [D,,D,]4 [D,,D,]4 | %24
 [G,,D,G,]8 |] %25
V:3
 x8 | x8 | x8 | x8 | z4 z2 [^G,,^G,]2 | [A,,A,]4[K:treble][K:bass] B,,4 | C,4 ^C,4[K:treble] | x8 | %8
 x8 | x8 | x8 | x8 | x8 | x8 | x8 | x8 | x8 |[M:3/4] x6 |[M:1/4] x2 |[M:4/4] x8 | x8 | x8 | x8 | %23
 x8 | x8 |] %25
V:4
 x8 | x8 | x8 | x8 | x8 | [EA]4 [B,D]4 | C2- [CGA]2 [^CEGA]4 | D2 C2 B,2 A,2 | x8 | x8 | x8 | %11
 z4[K:bass] D,4 | x2[K:treble] x6 | x8 | x8 | z2 C2 B,2 A,2 | x8 |[M:3/4] x6 |[M:1/4] x2 | %19
[M:4/4] D2 z2 z4 | x8 | z4 z2 D2 | z4 z2 E2 | z4 G2 z2 | x8 |] %25

